X: 1121
T: Hüzzam Aranağme (Düyek)
C: ?
O: Turkey
F: http://compmusic.upf.edu/node/140
N: huzzam--aranagme--duyek--1--
N: makam= huzzam
N: form= aranagme
N: usul= duyek = 8/4
M: 8/4
L: 1/16
K: C _1/4B _3/4e ^3/4f 
Q: 1/4=156
%%MIDI tuningsystem comma53
G2 B4 c2 d2 e2 c2 B2  | d8 {d}G2 B2 d4  | \
w:  ARANAĞME  |   | 
d2 f4 g2 ^3/4a2 b2 g2 a2  | b12 z4  | \
w:   |   | 
a2 ga g2 fg f2 ef e2 de  | 
w:   | 
d2 f4 ed d2 {e}dc B4  | f2 ef e2 d2 d2 cd c2 B2  | \
w:   |   | 
B8 GB G2 B4  | 
w:   | 
G2 B4 c2 d2 e2 c2 B2  | d8 {d}G2 B2 d4  | \
w:  ARANAĞME  |   | 
d2 f4 g2 ^3/4a2 b2 g2 a2  | b12 z4  | \
w:   |   | 
a2 ga g2 fg f2 ef e2 de  | 
w:   | 
d2 f4 ed d2 {e}dc B4  | f2 ef e2 d2 d2 cd c2 B2  | \
w:   |   | 
B8 GB G2 B4  | 
w:   | 
|


